X:1
T:Erlangen, 10.10.10.10 D
T:Erlangen, 10.10.10.10 D
T:Barney Elliott Warren, 1897
T:Public Domain Courtesy of the Cyber Hymnal™
C:Barney Elliott Warren, 1897
Z:Public Domain
Z:Courtesy of the Cyber Hymnal™
%%score ( 1 2 ) 3
L:1/8
Q:1/4=105
M:4/4
K:E
V:1 treble 
V:2 treble 
V:3 bass 
V:1
 B,B, | [B,E]2 [EG]2 [GB]2 [EG][GB] | [Ge]2 [GB]2 [GB]2 [EG][GB] | [FA]2 B,2 B,2 [B,D][B,F] | %4
 [B,E]2 [B,E]2 B,2 B,B, | [B,E]2 [EG]2 [GB]2 [EG][GB] | [Ge]2 [GB]2 [GB]2 [EG][GB] | %7
 [FA]2 B,2 B,2 [B,D][B,F] | [B,E]2 [B,D]2 [B,E]2 [GB][GB] | [FB]2 [Fd]2 [Ad]2 [Ac][Ac] | %10
 [GB]2 [Ge]2 [Ge]2 [GB][GB] | [FB]2 [Fd]2 [Ad]2 [Ac][Ac] | [GB]2 [Ge]2 [Ge]2 B,B, | %13
 [B,E]2 [EG]2 [GB]2 [EG][GB] | [Ge]2 [GB]2 [GB]2 [EG][GB] | [FA]2 B,2 B,2 [B,D][B,F] | %16
 [B,E]2 [B,D]2 !fermata![B,E]2 |] %17
V:2
 B,B, | x8 | x8 | x2 B,2 B,2 x2 | x4 B,2 B,B, | x8 | x8 | x2 B,2 B,2 x2 | x8 | x8 | x8 | x8 | %12
 x6 B,B, | x8 | x8 | x2 B,2 B,2 x2 | x6 |] %17
V:3
 [E,G,][E,G,] | [E,G,]2 [E,B,]2 [E,B,]2 [E,B,][E,B,] | [E,B,]2 [E,E]2 [E,E]2 [E,B,][E,B,] | %3
 [B,,B,]2 [B,,A,]2 [B,,A,]2 [B,,F,][B,,A,] | [E,G,]2 [E,G,]2 [E,G,]2 [E,G,][E,G,] | %5
 [E,G,]2 [E,B,]2 [E,B,]2 [E,B,][E,B,] | [E,B,]2 [E,E]2 [E,E]2 [E,B,][E,B,] | %7
 [B,,B,]2 [B,,B,]2 [B,,B,]2 [B,,F,][B,,A,] | [B,,G,]2 [B,,F,]2 [E,G,]2 [E,B,][E,B,] | %9
 [B,,B,]2 [B,,B,]2 [B,,B,]2 [B,,D][B,,D] | [E,E]2 [E,B,]2 [E,B,]2 [E,B,][E,B,] | %11
 [B,,B,]2 [B,,B,]2 [B,,B,]2 [B,,D][B,,D] | [E,E]2 [E,B,]2 [E,B,]2 [E,G,][E,G,] | %13
 [E,G,]2 [E,B,]2 [E,B,]2 [E,B,][E,B,] | [E,B,]2 [E,E]2 [E,E]2 [E,B,][E,B,] | %15
 [B,,B,]2 [B,,B,]2 [B,,B,]2 [B,,F,][B,,A,] | [B,,G,]2 [B,,F,]2 !fermata![E,G,]2 |] %17

